X:1
T:Title
%%score ( 1 2 ) { 3 | ( 4 5 ) }
L:1/8
Q:1/4=110
M:4/4
K:Eb
V:1 treble nm="Grand Piano, Staff"
V:2 treble 
V:3 bass nm="Choir Pad, Maoz Tsur, 76.76.66.336"
V:4 bass 
V:5 bass 
V:1
 [B,E]2 B,2 E2 [EA]2 | [EG]2 [DF]2 E4 | [EB]2 [Ec]2 [CF]2 [FA]2 | [EG]2 [DF]2 [CE]4 | %4
w: By~German~Askenazic~melody * * *||||
 [B,E]2 B,2 E2 [EA]2 | [EG]2 [DF]2 E4 | [EB]2 [=Ec]2 F2 [FA]2 | [EG]2 [DF]2 E4 | %8
w: ||||
 [EB]2 [GB]2 [Ec]2 [Ad]2 | e4 z4 | [Ee]2 [Ed]2 [Ec]2 [EB]2 | .B2 .G2 F4 | z4 G2 z2 | z4 A4 | %14
w: ||||||
 [B,G]2 [DF]2 E2 [FA]2 | [EG]2 [DF]2 E4- | E4 z4 |] %17
w: |||
V:2
 x8 | x8 | x8 | x8 | x8 | x8 | x8 | x8 | x8 | G2 A2 [GB]4 | x8 | =E-[EA]C-[CA] C2 D2 | %12
 [EG]3 [FA] B2- [EB]2 | [DF]3 [DG] E2 B,2 | x8 | x8 | x8 |] %17
V:3
 G,2 F,2 G,2 A,2 | B,2 B,2 B,CB,A, | G,2 G,2 A,2 C2 | B,3 A, G,2 A,2 | G,2 F,2 G,2 A,2 | %5
 B,2 B,2 B,CB,A, | G,2 G,2 C2 C2 | .B,4 G,A,B,C | B,2 B,2 A,2 B,2 | B,2 C2 E4 | G,2 G,2 A,2 B,2 | %11
 G,2 C2 A,2 B,2 | B,3 B, B,2 G,2 | B,3 B, A,2 F,2 | G,2 A,2 G,2 C2 | B,2 A,2 G,4- | G,4 z4 |] %17
V:4
 E,2 D,2 C,2 =B,,2 | B,,2 A,2 G,A,G,F, | E,2 C,2 F,2 F,,2 | G,,A,,B,,=B,, C,_B,,A,,C, | %4
 E,2 D,2 C,2 =B,,2 | B,,2 A,2 G,A,G,F, | E,2 C,B,, A,,2 F,,2 | G,,A,, z A, E,F,G,A, | %8
 G,2 E,2 z2 F,2 | E,4 E,4 | C,2 B,,2 A,,2 G,,2 | C,2 =E,2 F,_E,D,B,, | E,3 E, E,4 | %13
 B,,3 B,, C,2 D,2 | E,2 =B,,2 C,2 A,,2 | B,,4 E,4- | E,4 z4 |] %17
V:5
 x8 | x8 | x8 | x8 | x8 | x8 | x8 | z2 B,,2 z4 | x8 | x8 | x8 | x8 | x8 | x8 | x8 | x8 | x8 |] %17

